public/img/usage/megafon.svg

<svg fill="none" height="40" viewBox="0 0 222 40" width="222" xmlns="http://www.w3.org/2000/svg" xmlns:xlink="http://www.w3.org/1999/xlink"><clipPath id="a"><path d="m0 0h221.091v40h-221.091z"/></clipPath><g clip-path="url(#a)" fill="#00b956" opacity=".7"><path d="m22.0365.509277v20.218223c0 .9454-.7272 1.6-1.6 1.6h-2.4c-.1454 0-.2181.1454-.2181.2181v16.9455c.5818 0 1.1636.1455 1.8181.1455 10.8364 0 19.6364-8.8001 19.6364-19.6364 0-9.9637-7.4909-18.32729-17.2364-19.490923zm-.4363 30.254523c-1.3818 0-2.4-1.1636-2.4-2.4 0-1.3818 1.1636-2.4 2.4-2.4 1.3818 0 2.4 1.1637 2.4 2.4.1454 1.3091-1.0182 2.4-2.4 2.4zm5.7454 0c-1.3818 0-2.4-1.1636-2.4-2.4 0-1.3818 1.1637-2.4 2.4-2.4 1.3818 0 2.4 1.1637 2.4 2.4 0 1.2364-.9454 2.4-2.4 2.4zm5.8182 0c-1.3818 0-2.4-1.1636-2.4-2.4 0-1.3818 1.1636-2.4 2.4-2.4 1.3818 0 2.4 1.1637 2.4 2.4 0 1.2364-1.0182 2.4-2.4 2.4z"/><path d="m19.6364.436523c-10.8364 0-19.6364 8.799997-19.6364 19.636377 0 9.5273 6.61818 17.3091 15.4909 19.1273v-17.6728c0-.8.7273-1.4545 1.4546-1.6h2.4c.1454 0 .2181-.1454.2181-.2182zm-3.7819 16.145477c-1.3818 0-2.4-1.1637-2.4-2.4 0-1.3818 1.1637-2.4 2.4-2.4 1.3819 0 2.4 1.1636 2.4 2.4 0 1.2363-1.0909 2.4-2.4 2.4z"/><path d="m216.218 11.1276v7.4182h-9.891v-7.4182h-5.018v19.6364h5.018v-7.9273h9.891v7.9273h4.873v-19.6364zm-81.745 2.2545c-.8-1.7454-2.4-2.6909-4-2.6909s-3.273.9455-4 2.6909l-7.928 17.4546h5.237l1.745-4.1455h10.182l1.745 4.1455h5.237zm-7.564 9.3819 2.982-7.2c.145-.2182.218-.2182.363-.2182.146 0 .364 0 .364.2182l2.982 7.2zm-50.9091-15.12731c-2.3272 0-3.7818 1.23637-4.8727 3.70911l-6.3273 14.7636-6.4-14.8363c-1.0181-2.40004-2.5454-3.70914-4.8727-3.70914-2.1818 0-4.3636 1.45455-4.3636 4.87274v18.2545h4.8727v-17.6l6.4727 14.6182c.8 2.1091 2.3273 3.3455 4.2909 3.3455 2.1091 0 3.4909-1.2364 4.2909-3.3455l6.4728-14.6182v17.8182h4.8727v-18.2545c-.0727-3.41821-2.2545-5.01821-4.4364-5.01821zm13.0182 18.98181c-.2182 0-.5091-.2182-.5091-.5091v-3.4909h12.218v-4h-12.218v-2.9818c0-.2182.2182-.5091.5091-.5091h12.1459v-4.1455h-14.5459c-1.7454 0-2.9091 1.3819-2.9091 2.9091v13.7455c0 1.4545 1.2364 2.9091 2.9091 2.9091h14.5459v-4.1455h-12.1459zm20.3639 4.1455v-14.9819c0-.2181.218-.509.509-.509h12.145v-4.1455h-14.545c-1.746 0-2.909 1.3818-2.909 2.9091v16.6545zm88.727-9.7455c0-6.8364-2.982-10.0364-10.4-10.0364h-1.745c-7.419 0-10.4 3.2728-10.4 10.0364 0 6.6909 2.981 10.0364 10.4 10.0364h1.6c7.563-.1455 10.545-3.3455 10.545-10.0364zm-10.545 5.8909h-1.6c-4 0-5.673-1.8182-5.673-5.8909 0-3.9273 1.382-5.8909 5.673-5.8909h1.6c4.145 0 5.672 1.9636 5.672 5.8909 0 4-1.527 5.8909-5.672 5.8909zm-25.6-18.83634h-9.746c-7.273 0-10.182 3.70904-10.182 10.03634 0 1.0182.146 1.9637.218 2.7637.8 4.509 3.491 7.2727 10.255 7.2727h2.182v2.5454h4.873v-2.5454h2.109c6.836 0 9.527-2.7637 10.254-7.2727.146-.8.218-1.7455.218-2.7637-.072-6.3273-3.054-10.03634-10.181-10.03634zm-7.419 16.00004h-2.181c-3.346 0-4.51-1.2364-5.237-3.2728-.218-.7272-.218-1.7454-.218-2.7636 0-4.1455 1.964-5.8909 4.727-5.8909h2.982v11.9273zm12.509-3.0546c-.727 1.9636-1.963 3.2727-5.236 3.2727h-2.182v-12h2.982c2.764 0 4.727 1.7455 4.727 5.8909-.072 1.091-.072 1.9637-.291 2.8364z"/></g></svg>

<svg width="222" height="40" viewBox="0 0 222 40" fill="none" xmlns="http://www.w3.org/2000/svg">
<g style="mix-blend-mode:luminosity" opacity="0.7" clip-path="url(#clip0_242_4822)">
<path d="M22.0365 0.509277V20.7275C22.0365 21.6729 21.3093 22.3275 20.4365 22.3275H18.0365C17.8911 22.3275 17.8184 22.4729 17.8184 22.5456V39.4911C18.4002 39.4911 18.982 39.6366 19.6365 39.6366C30.4729 39.6366 39.2729 30.8365 39.2729 20.0002C39.2729 10.0365 31.782 1.67291 22.0365 0.509277ZM21.6002 30.7638C20.2184 30.7638 19.2002 29.6002 19.2002 28.3638C19.2002 26.982 20.3638 25.9638 21.6002 25.9638C22.982 25.9638 24.0002 27.1275 24.0002 28.3638C24.1456 29.6729 22.982 30.7638 21.6002 30.7638ZM27.3456 30.7638C25.9638 30.7638 24.9456 29.6002 24.9456 28.3638C24.9456 26.982 26.1093 25.9638 27.3456 25.9638C28.7274 25.9638 29.7456 27.1275 29.7456 28.3638C29.7456 29.6002 28.8002 30.7638 27.3456 30.7638ZM33.1638 30.7638C31.782 30.7638 30.7638 29.6002 30.7638 28.3638C30.7638 26.982 31.9274 25.9638 33.1638 25.9638C34.5456 25.9638 35.5638 27.1275 35.5638 28.3638C35.5638 29.6002 34.5456 30.7638 33.1638 30.7638Z" fill="#00B956"/>
<path d="M19.6364 0.436523C8.8 0.436523 0 9.23652 0 20.0729C0 29.6002 6.61818 37.382 15.4909 39.2002V21.5274C15.4909 20.7274 16.2182 20.0729 16.9455 19.9274H19.3455C19.4909 19.9274 19.5636 19.782 19.5636 19.7092L19.6364 0.436523ZM15.8545 16.582C14.4727 16.582 13.4545 15.4183 13.4545 14.182C13.4545 12.8002 14.6182 11.782 15.8545 11.782C17.2364 11.782 18.2545 12.9456 18.2545 14.182C18.2545 15.4183 17.1636 16.582 15.8545 16.582Z" fill="#00B956"/>
<path d="M216.218 11.1276V18.5458H206.327V11.1276H201.309V30.764H206.327V22.8367H216.218V30.764H221.091V11.1276H216.218ZM134.473 13.3821C133.673 11.6367 132.073 10.6912 130.473 10.6912C128.873 10.6912 127.2 11.6367 126.473 13.3821L118.545 30.8367H123.782L125.527 26.6912H135.709L137.454 30.8367H142.691L134.473 13.3821ZM126.909 22.764L129.891 15.564C130.036 15.3458 130.109 15.3458 130.254 15.3458C130.4 15.3458 130.618 15.3458 130.618 15.564L133.6 22.764H126.909ZM75.9999 7.63669C73.6727 7.63669 72.2181 8.87306 71.1272 11.3458L64.7999 26.1094L58.3999 11.2731C57.3818 8.87306 55.8545 7.56396 53.5272 7.56396C51.3454 7.56396 49.1636 9.01851 49.1636 12.4367V30.6912H54.0363V13.0912L60.509 27.7094C61.309 29.8185 62.8363 31.0549 64.7999 31.0549C66.909 31.0549 68.2908 29.8185 69.0908 27.7094L75.5636 13.0912V30.9094H80.4363V12.6549C80.3636 9.23669 78.1818 7.63669 75.9999 7.63669ZM89.0181 26.6185C88.7999 26.6185 88.509 26.4003 88.509 26.1094V22.6185H100.727V18.6185H88.509V15.6367C88.509 15.4185 88.7272 15.1276 89.0181 15.1276H101.164V10.9821H86.6181C84.8727 10.9821 83.709 12.364 83.709 13.8912V27.6367C83.709 29.0912 84.9454 30.5458 86.6181 30.5458H101.164V26.4003H89.0181V26.6185ZM109.382 30.764V15.7821C109.382 15.564 109.6 15.2731 109.891 15.2731H122.036V11.1276H107.491C105.745 11.1276 104.582 12.5094 104.582 14.0367V30.6912L109.382 30.764ZM198.109 21.0185C198.109 14.1821 195.127 10.9821 187.709 10.9821H185.964C178.545 10.9821 175.564 14.2549 175.564 21.0185C175.564 27.7094 178.545 31.0549 185.964 31.0549H187.564C195.127 30.9094 198.109 27.7094 198.109 21.0185ZM187.564 26.9094H185.964C181.964 26.9094 180.291 25.0912 180.291 21.0185C180.291 17.0912 181.673 15.1276 185.964 15.1276H187.564C191.709 15.1276 193.236 17.0912 193.236 21.0185C193.236 25.0185 191.709 26.9094 187.564 26.9094ZM161.964 8.07306H152.218C144.945 8.07306 142.036 11.7821 142.036 18.1094C142.036 19.1276 142.182 20.0731 142.254 20.8731C143.054 25.3821 145.745 28.1458 152.509 28.1458H154.691V30.6912H159.564V28.1458H161.673C168.509 28.1458 171.2 25.3821 171.927 20.8731C172.073 20.0731 172.145 19.1276 172.145 18.1094C172.073 11.7821 169.091 8.07306 161.964 8.07306ZM154.545 24.0731H152.364C149.018 24.0731 147.854 22.8367 147.127 20.8003C146.909 20.0731 146.909 19.0549 146.909 18.0367C146.909 13.8912 148.873 12.1458 151.636 12.1458H154.618V24.0731H154.545ZM167.054 21.0185C166.327 22.9821 165.091 24.2912 161.818 24.2912H159.636V12.2912H162.618C165.382 12.2912 167.345 14.0367 167.345 18.1821C167.273 19.2731 167.273 20.1458 167.054 21.0185Z" fill="#00B956"/>
</g>
<defs>
<clipPath id="clip0_242_4822">
<rect width="221.091" height="40" fill="white"/>
</clipPath>
</defs>
</svg>
